X:1
T:Calvary (Turvey), 66.77.77
T:Calvary (Turvey), 66.77.77
T:Thomas Turvey, before 1895
T:Public Domain Courtesy of the Cyber Hymnal™
C:Thomas Turvey, before 1895
Z:Public Domain
Z:Courtesy of the Cyber Hymnal™
%%score ( 1 2 ) ( 3 4 )
L:1/8
Q:1/4=108
M:4/4
K:F
V:1 treble 
V:2 treble 
V:3 bass 
V:4 bass 
V:1
 [FA]2 | [DF]2 D2 [DE]2 [^CE]2 | D6 D2 | [DF]2 A2 [DB]2 [EB]2 | [EA]8 | [FA]2 [FA]2 [GB]2 [GB]2 | %6
 [EG]2 [EG]2 [FA]4 | [FA]2 A2 [Fd]2 [DF]2 | [DG]2 D2 !fermata![^CA]4 | [^CA]2 [FA]2 [EG]2 [EG]2 | %10
 [DB]2 [GB]2 [FA]4 | [FA]2 A2 [Fc]2 F2 | [FG]2 [EG]2 F4 |] %13
V:2
 x2 | x2 D2 x4 | D6 D2 | x2 (D^C) x4 | x8 | x8 | x8 | x2 (GE) x4 | x2 D2 x4 | x8 | x8 | %11
 x2 (FE) x F2 x | x4 F4 |] %13
V:3
 [F,,A,]2 | [B,,B,]2 [B,,B,]2 [G,,B,]2 [A,,A,]2 | [D,F,]6 [D,F,]2 | [D,A,]2 [F,A,]2 G,2 [G,D]2 | %4
 [A,^C]8 | [D,D]2 [D,D]2 [G,,D]2 [G,,D]2 | [C,C]2 [C,C]2 [F,C]4 | [F,C]2 [E,^C]2 [D,D]2 [D,A,]2 | %8
 [B,,D,]2 [B,,D,]2 !fermata![A,,E,]4 | [F,A,]2 [F,C]2 [C,C]2 [C,C]2 | [G,B,]2 [G,D]2 [D,D]4 | %11
 [D,D]2 [D,D]2 [A,,C]2 [D,A,]2 | [B,,D]2 [C,C]2 [F,A,]4 |] %13
V:4
 x2 | x8 | x8 | x4 G,2 x2 | x8 | x8 | x8 | x8 | x8 | x8 | x8 | x8 | x8 |] %13

